X:1
T:Righil Thulaichean
M:C
L:1/8
Q:80
C:Trad.
S:Reel
K:HP
|: f | \
{gef}e2{g}A{d}c{GdG}ecA{g}f | \
{gef}e2{g}A{d}cdBG{g}f | \
{gef}e2{g}A{d}c{GdG}eA{d}c{g}A |
B{G}B{d}cA{gde}dBG{d}B:| [ | \
{d}cA{gcd}ce{g}c{d}A{e}A{d}B | \
{d}cA{gcd}ce{gde}dBG{d}B |
{d}cA{gcd}ce{g}A{e}A{gcd}c{e}A | \
GB{d}c{g}A{gde}dBG{d}B{d}cA{d}c{GdG}eaA{e}A{d}B | \
{d}c{e}A{d}cegG{d}GB |
{d}c{g}A{d}c{GdG}ea{GdGe}Aae | \
gage{gde}dBGg | \
afgef{Gdc}dec |
{gde}dBcA{gde}dBG|]
